img/referr.svg

<svg width="24" height="24" viewBox="0 0 24 24" fill="none" xmlns="http://www.w3.org/2000/svg">
<path fill-rule="evenodd" clip-rule="evenodd" d="M9.87663 15.2062C6.03263 15.2062 2.74963 15.7872 2.74963 18.1152C2.74963 20.4432 6.01263 21.0452 9.87663 21.0452C13.7216 21.0452 17.0036 20.4632 17.0036 18.1362C17.0036 15.8092 13.7416 15.2062 9.87663 15.2062Z" stroke="#2E2F30" stroke-width="1.5" stroke-linecap="round" stroke-linejoin="round"/>
<path opacity="0.4" fill-rule="evenodd" clip-rule="evenodd" d="M9.8766 11.8859C12.3996 11.8859 14.4446 9.84088 14.4446 7.31788C14.4446 4.79488 12.3996 2.74988 9.8766 2.74988C7.3546 2.74988 5.3096 4.79488 5.3096 7.31788C5.3006 9.83188 7.3306 11.8769 9.8456 11.8859H9.8766Z" stroke="#2E2F30" stroke-width="1.5" stroke-linecap="round" stroke-linejoin="round"/>
<path d="M19.2037 8.66907V12.6791" stroke="#2E2F30" stroke-width="1.5" stroke-linecap="round" stroke-linejoin="round"/>
<path d="M21.2497 10.674H17.1597" stroke="#2E2F30" stroke-width="1.5" stroke-linecap="round" stroke-linejoin="round"/>
</svg>

<svg width="24" height="24" fill="none" xmlns="http://www.w3.org/2000/svg"><path clip-rule="evenodd" d="M9.877 15.206c-3.844 0-7.127.581-7.127 2.91 0 2.327 3.263 2.93 7.127 2.93 3.845 0 7.127-.583 7.127-2.91s-3.262-2.93-7.127-2.93z" stroke="#2E2F30" stroke-width="1.5" stroke-linecap="round" stroke-linejoin="round"/><path opacity=".4" clip-rule="evenodd" d="M9.877 11.886A4.568 4.568 0 1 0 5.31 7.318a4.551 4.551 0 0 0 4.536 4.568h.03z" stroke="#2E2F30" stroke-width="1.5" stroke-linecap="round" stroke-linejoin="round"/><path d="M19.204 8.67v4.01M21.25 10.674h-4.09" stroke="#2E2F30" stroke-width="1.5" stroke-linecap="round" stroke-linejoin="round"/></svg>
